X: 2049
T: Lame Duck Reel
R: reel
C: Rick Gagne
N: 1989 on tenor banjo
Q: 1/4=175
M: 4/4
K: A
"A"EA~A2 cA~A2 | "D"BAcA "E"BAFA | "A"EA~A2 cA~A2 | "E"BAFE "A"A2AF | 
EA~A2 cA~A2 | "Bm"BAcA "D"BAFA | "A"EA~A2 cAec | "E"BAFE "A"A2ce ||
"F#m"afec BcAc | "Bm"BAcA BAFA | "D"afec BcAc | "E"BAFE "A"A2ce | 
"F#m"afec BcAc | "Bm"BAcA BAFA | "A"EA~A2 cAec | "E"BAFE "A"A2AF ||
